X:1
T:Laudate Dominum
T:William  Croft (1678-1727)
T:From "Cathedral Music", a collection of anthems by the composer, page 458
T:Laudate Dominum
T:Canon four in one
C:William  Croft (1678-1727)
Z:From "Cathedral Music", a collection of
Z:anthems by the composer, page 458
%%score [ 1 2 3 4 ]
L:1/8
M:2/2
K:Bb
V:1 treble nm="P1" snm="S."
V:2 treble nm="P2" snm="A."
V:3 treble-8 transpose=-12 nm="P3" snm="T."
V:4 bass nm="P4" snm="B."
V:1
 z4 F4 (G2 A2) B4 | (B2 A2 G3) G F4 A4 | B4 F4 z4 B2 B2 | c4 c4 d4 f4- | f2 e2 d3 d c4 z4 | %5
w: Lau- da- * te|Do- * * mi- num, lau-|da- te, qui- a|bo- nus est Do-|* * * mi- nus.|
 z4 A2 A2 B6 F2 | G2 A2 B2 G2 A2 B2 c4- | c2 B2 (A2 G2) G4 G4 | (c2 B2) A2 G2 F4 F4 | %9
w: Psal- li- te no-||* mi- ni _ e- ius,|qui- * a ju- cun- dum|
 G8 G3 G (A2 B2) | A3 A A4 B2 B2 B4 | B2 G2 c6 c2 F4 | z2 d2 d2 d2 d4 c4 | c2 B2 A2 G2 A2 GA B4 | %14
w: est, psal- li- te _|no- mi- ni e- ius, qui-|a ju- cun- dum est,|ju- cun- dum est, ju-|cun- * * * * * * *|
 B4 A4 B8 |] %15
w: * dum est.|
V:2
 z8 z4 B,4 | (C2 D2) E4 (E2 D2 C3) C | B,4 D4 E4 B,4 | z4 E2 E2 F4 F4 | G4 B6 A2 G3 G | %5
w: Lau-|da- * te Do- * * mi-|num, lau- da- te,|qui- a bo- nus|est Do- * * mi-|
 F4 z4 z4 D2 D2 | E6 B,2 C2 D2 E2 C2 | D2 E2 F6 E2 (D2 C2) | C4 C4 (F2 E2) D2 C2 | B,4 B,4 C8 | %10
w: nus. Psal- li-|te no- * * * *|* * * mi- ni _|e- ius, qui- * a ju-|cun- dum est,|
 C3 C (D2 E2) D3 D D4 | E2 E2 E4 E2 C2 F4- | F2 F2 B,4 z2 G2 G2 G2 | G4 F4 (F2 E2 D2 E2 | %14
w: psal- li- te _ no- mi- ni|e- ius, qui- a ju- cun-|* dum est, ju- cun- dum|est, ju- cun- * * *|
 F6) F2 F8 |] %15
w: * dum est.|
V:3
 z16 | z8 z4 F4 | (G2 A2) B4 (B2 A2 G3) G | F4 A4 B4 F4 | z4 B2 B2 c4 c4 | d4 (f6 e2 d3) d | %6
w: |Lau-|da- * te Do- * * mi-|num, lau- da- te,|qui- a bo- nus|est Do- * * mi-|
 c4 z4 z4 A2 A2 | B6 F2 G2 A2 B2 G2 | A2 B2 c6 B2 (A2 G2) | G4 G4 (c2 B2) A2 G2 | F4 F4 G8 | %11
w: nus. Psal- li-|te no- * * * *|* * * mi- ni _|e- ius, qui- * a ju-|cun- dum est,|
 G3 G (A2 B2) A3 A A4 | B2 B2 B4 B2 G2 c4- | c2 c2 F4 z2 c2 (d2 cB | c6) c2 d8 |] %15
w: psal- li- te _ no- mi- ni|e- ius, qui- a ju- cun-|* dum est, ju- cun- * *|* dum est.|
V:4
 z16 | z16 | z4 B,,4 (C,2 D,2) E,4 | (E,2 D,2 C,3) C, B,,4 D,4 | E,4 B,,4 z4 E,2 E,2 | %5
w: ||Lau- da- * te|Do- * * mi- num, lau-|da- te, qui- a|
 F,4 F,4 G,4 B,4- | B,2 A,2 G,3 G, F,4 z4 | z4 D,2 D,2 E,6 B,,2 | C,2 D,2 E,2 C,2 D,2 E,2 F,4- | %9
w: bo- nus est Do-|* * * mi- nus.|Psal- li- te no-||
 F,2 E,2 (D,2 C,2) C,4 C,4 | (F,2 E,2) D,2 C,2 B,,4 B,,4 | C,8 C,3 C, (D,2 E,2) | %12
w: * mi- ni _ e- ius,|qui- * a ju- cun- dum|est, psal- li- te _|
 D,3 D, D,4 E,2 E,2 E,4 | E,2 C,2 F,6 F,2 B,,2 B,,2 | F,,6 F,,2 B,,8 |] %15
w: no- mi- ni e- ius, qui-|a ju- cun- dum est, ju-|cun- dum est.|

